assets/images/sign.svg

<svg width="7" height="11" viewBox="0 0 7 11" fill="none" xmlns="http://www.w3.org/2000/svg">
<path d="M3.62844 7.415V7.475H1.70844V7.145C1.70844 6.645 1.79344 6.275 1.96344 6.035C2.13344 5.785 2.44844 5.51 2.90844 5.21L3.95844 4.535C4.29844 4.305 4.55344 4.085 4.72344 3.875C4.89344 3.665 4.97844 3.395 4.97844 3.065C4.97844 2.655 4.84844 2.34 4.58844 2.12C4.33844 1.9 4.00344 1.79 3.58344 1.79C3.14344 1.79 2.79844 1.925 2.54844 2.195C2.29844 2.465 2.17344 2.82 2.17344 3.26V3.695H0.313438V3.155C0.313438 2.195 0.618438 1.46 1.22844 0.95C1.83844 0.429999 2.62344 0.169999 3.58344 0.169999C4.58344 0.169999 5.38344 0.409999 5.98344 0.89C6.59344 1.37 6.89844 2.095 6.89844 3.065C6.89844 3.745 6.73844 4.3 6.41844 4.73C6.09844 5.16 5.61844 5.575 4.97844 5.975L4.06344 6.56C3.77344 6.77 3.62844 7.055 3.62844 7.415ZM1.52844 11V8.615H3.80844V11H1.52844Z" fill="#AAAAAA"/>
</svg>

<svg xmlns="http://www.w3.org/2000/svg" width="7" height="11" fill="none"><path fill="#AAA" d="M3.628 7.415v.06h-1.92v-.33q0-.75.255-1.11.255-.375.945-.825l1.05-.675q.51-.345.765-.66t.255-.81q0-.615-.39-.945-.375-.33-1.005-.33-.66 0-1.035.405T2.173 3.26v.435H.313v-.54q0-1.44.915-2.205.915-.78 2.355-.78 1.5 0 2.4.72.915.72.915 2.175 0 1.02-.48 1.665t-1.44 1.245l-.915.585a1 1 0 0 0-.435.855M1.528 11V8.615h2.28V11z"/></svg>
